!!!COM: Haydn, Franz Joseph
!!!OTL: String Quartet in A Major
!!!OPS: Opus 55
!!!ONM: No. 1
!!!OMD: Adagio cantabile
!!!OMV: 2
!!!SCT: H III:60
!!!SCA: Thematisch-bibliographisches Werkevererzeichnis (A. van Hoboken)
!!!YOR: Dover Edition; reprint of Eulenburg Edition
!!!ENC: Walter Hewlett
!!!CDT: 1732/3/31/-1809/5/31/
!!!CNT: Oesterreich
!!!YEC: Copyright (c) 1994, 2000 Center for Computer Assisted Research in the Humanities
!!!YEM: Rights to all derivative editions reserved.
!!!YEM: Refer to licensing agreement for further details.
!!!YEN: United States of America
**kern	**dynam	**kern	**dynam	**kern	**dynam	**kern	**dynam
*I:Violoncello	*I:Violoncello	*I:Viola	*I:Viola	*I:Violino II	*I:Violino II	*I:Violino I	*I:Violino I
*clefF4	*	*clefC3	*	*clefG2	*	*clefG2	*
*k[f#c#]	*	*k[f#c#]	*	*k[f#c#]	*	*k[f#c#]	*
*D:	*	*D:	*	*D:	*	*D:	*
*M2/4	*	*M2/4	*	*M2/4	*	*M2/4	*
! Adagio cantabile	!	! Adagio cantabile	!	! Adagio cantabile	!	! Adagio cantabile	!
!	!	!	!	! dolce	!	!	!
(8FF#/L	p	(8D/L	p	4a/	p	2r	.
8DD/J)	.	8f#/J)	.	.	.	.	.
(8GG/L	.	(8d\L	.	(8.b\L	.	.	.
8DD/J)	.	8g\J)	.	.	.	.	.
.	.	.	.	32cc#\LL	.	.	.
.	.	.	.	32dd\JJJ)	.	.	.
=2	=2	=2	=2	=2	=2	=2	=2
(8FF#/L	.	(8d\L	.	(16dd\LL	.	2r	.
.	.	.	.	16a\J)	.	.	.
8DD/J)	.	8f#\J)	.	[8a\J	.	.	.
(8FF#/L	.	8d\	.	16a/LL]	.	.	.
.	.	.	.	(32b/L	.	.	.
.	.	.	.	32a/JJJ	.	.	.
8DD/J)	.	8r	.	32g/LLL	.	.	.
.	.	.	.	32f#/	.	.	.
.	.	.	.	32e/	.	.	.
.	.	.	.	32d/JJJ)	.	.	.
=3	=3	=3	=3	=3	=3	=3	=3
[2AA/	.	(8G/L	.	(16.c#/LL	.	2r	.
.	.	.	.	32A/k)	.	.	.
.	.	8F#/J)	.	(16.d/	.	.	.
.	.	.	.	32A/JJk)	.	.	.
.	.	8c#\L	.	8g/L	.	.	.
.	.	&(32d\LL)	.	&(32f#/LL)	.	.	.
.	.	32c#\	.	32e/	.	.	.
.	.	32d\	.	32f#/	.	.	.
.	.	32e\JJJ&)	.	32g/JJJ&)	.	.	.
=4	=4	=4	=4	=4	=4	=4	=4
8AA\L]	.	(4d\	.	(4f#/	.	2r	.
(8G#\J	.	.	.	.	.	.	.
8A\)	.	8c#\)	.	16e/LL)	.	.	.
.	.	.	.	(16f#/	.	.	.
8r	.	8r	.	16g/	.	.	.
.	.	.	.	16g#/JJ)	.	.	.
=5	=5	=5	=5	=5	=5	=5	=5
(8FF#/L	.	(8D/L	.	4a/	.	2r	.
8DD/J)	.	8f#/J)	.	.	.	.	.
(8GG/L	.	(8d\L	.	(8.b\L	.	.	.
8DD/J)	.	8g\J)	.	.	.	.	.
.	.	.	.	32cc#\LL	.	.	.
.	.	.	.	32dd\JJJ)	.	.	.
=6	=6	=6	=6	=6	=6	=6	=6
(8FF#/L	.	(8d\L	.	(16dd\LL	.	2r	.
.	.	.	.	16a\J)	.	.	.
8DD/J)	.	8f#\J)	.	[8a\J	.	.	.
8FF#'/	.	8d'\	.	16a\LL]	<	.	.
.	.	.	.	(32b'\L	.	.	.
.	.	.	.	32cc#'\JJJ	.	.	.
8r	.	8r	.	32dd'\LLL	.	.	.
.	.	.	.	32ee'\	.	.	.
.	.	.	.	32ff#'\	.	.	.
.	.	.	.	32gg'\JJJ)	]	.	.
=7	=7	=7	=7	=7	=7	=7	=7
4r	.	4r	.	8aa\L	.	2r	.
.	.	.	.	16.r	.	.	.
.	.	.	.	32ff#\Jkk	.	.	.
8AA/L	.	8f#\L	.	8dd\L	.	.	.
8AA/J	.	&(32g\LL)	.	&(32ee\LL)	.	.	.
.	.	32f#\	.	32dd\	.	.	.
.	.	32g\	.	32ee\	.	.	.
.	.	32a\JJJ&)	.	32ff#\JJJ&)	.	.	.
=8	=8	=8	=8	=8	=8	=8	=8
4DD/	.	16f#'\LL	.	16dd'\LL	.	2r	.
.	.	16b'\	.	16dd'\	.	.	.
.	.	16a'\	.	16cc#'\	.	.	.
.	.	16g'\JJ	.	16b'\JJ	.	.	.
4r	.	16f#'\LL	.	16a'/LL	.	.	.
.	.	16B'\	.	16g'/	.	.	.
.	.	16A'\	.	16f#'/	.	.	.
.	.	16G'\JJ	.	16e'/JJ	.	.	.
=9	=9	=9	=9	=9	=9	=9	=9
!	!	!	!	!	!	! dolce	!
[2DD/	.	(8F#/L	.	(8d/L	.	4aa\	.
.	.	8D/J)	.	8f#/)	.	.	.
.	.	(8G/L	.	(8B/	.	(8.bb\L	.
.	.	8D/J)	.	8g/J)	.	.	.
.	.	.	.	.	.	32ccc#\LL	.
.	.	.	.	.	.	32ddd\JJJ)	.
=10	=10	=10	=10	=10	=10	=10	=10
2DD/]	.	(8F#/L	.	(8A/L	.	(16ddd\LL	.
.	.	.	.	.	.	16aa\J)	.
.	.	8D/J)	.	8f#/)	.	[8aa\J	.
.	.	(8F#/L	.	(8d/	.	16aa\LL]	.
.	.	.	.	.	.	(32bb\L	.
.	.	.	.	.	.	32aa\JJJ	.
.	.	8D/J)	.	8f#/J)	.	32gg\LLL	.
.	.	.	.	.	.	32ff#\	.
.	.	.	.	.	.	32ee\	.
.	.	.	.	.	.	32dd\JJJ)	.
=11	=11	=11	=11	=11	=11	=11	=11
[2AA/	.	(8E/L	.	(8g/L	.	(16.cc#\LL	.
.	.	.	.	.	.	32a\k)	.
.	.	8D/J)	.	8f#/J)	.	(16.dd\	.
.	.	.	.	.	.	32a\JJk)	.
.	.	(8e\L	.	8cc#\L	.	8gg\L	.
.	.	8d\J)	.	&(32dd\LL)	.	&(32ff#\LL)	.
.	.	.	.	32cc#\	.	32ee\	.
.	.	.	.	32dd\	.	32ff#\	.
.	.	.	.	32ee\JJJ&)	.	32gg\JJJ&)	.
=12	=12	=12	=12	=12	=12	=12	=12
8AA/]	.	8A/	.	(4dd\	.	4ff#\	.
(32A\LLL	.	8r	.	.	.	.	.
32G#\	.	.	.	.	.	.	.
32B\	.	.	.	.	.	.	.
32G#\JJJ)	.	.	.	.	.	.	.
8A\	.	4r	.	8cc#\)	.	16ee\LL	.
.	.	.	.	.	.	(16ff#\	.
8r	.	.	.	8r	.	16gg\	.
.	.	.	.	.	.	16gg#\JJ)	.
=13	=13	=13	=13	=13	=13	=13	=13
[2DD/	.	(8F#/L	.	(8d/L	.	4aa\	.
.	.	8D/J)	.	8f#/)	.	.	.
.	.	(8G/L	.	(8B/	.	(8.bb\L	.
.	.	8D/J)	.	8g/J)	.	.	.
.	.	.	.	.	.	32ccc#\LL	.
.	.	.	.	.	.	32ddd\JJJ)	.
=14	=14	=14	=14	=14	=14	=14	=14
4DD/]	.	(8F#/L	.	(8A/L	.	(16ddd\LL	.
.	.	.	.	.	.	16aa\J)	.
.	.	8D/J)	.	8f#/J)	.	[8aa\J	.
4r	.	8F#/	.	8d/	.	16aa\LL]	.
.	.	.	.	.	.	(32bb'\L	<
.	.	.	.	.	.	32ccc#'\JJJ	.
.	.	8r	.	8r	.	32ddd'\LLL	.
.	.	.	.	.	.	32eee'\	.
.	.	.	.	.	.	32fff#'\	.
.	.	.	.	.	.	32ggg'\JJJ)	.
=15	=15	=15	=15	=15	=15	=15	=15
4r	.	4r	.	4r	.	8aaa\	]
.	.	.	.	.	.	16.r	.
.	.	.	.	.	.	32fff#\	.
8AA/L	.	(8d\L	.	8f#/L	.	8ddd\L	.
8AA/J	.	8c#\J)	.	&(32g/LL)	.	&(32eee\LL)	.
.	.	.	.	32f#/	.	32ddd\	.
.	.	.	.	32g/	.	32eee\	.
.	.	.	.	32a/JJJ&)	.	32fff#\JJJ&)	.
=16	=16	=16	=16	=16	=16	=16	=16
16D\LL	.	8d\	.	8f#/	.	4ddd\	.
16D\	.	.	.	.	.	.	.
16D\	.	8r	.	8r	.	.	.
16D\JJ	.	.	.	.	.	.	.
16D\LL	.	(8B/L	.	8g/L	.	4r	.
16D\	.	.	.	.	.	.	.
16D\	.	8c#/J)	.	&(32g/LL)	.	.	.
.	.	.	.	32f#/	.	.	.
16D\JJ	.	.	.	32g/	.	.	.
.	.	.	.	32a/JJJ&)	.	.	.
=17	=17	=17	=17	=17	=17	=17	=17
16D\LL	.	8d\	.	(8.f#/L	.	32r	.
.	.	.	.	.	.	(32dd'\LLL	.
16D\	.	.	.	.	.	32ee'\	.
.	.	.	.	.	.	32ff#'\JJJ	.
16D\	.	8r	.	.	.	32gg'\LLL	.
.	.	.	.	.	.	32aa'\	.
16D\JJ	.	.	.	32g/LL	.	32bb'\	.
.	.	.	.	32a/JJJ)	.	32ccc#'\JJJ)	.
16D\LL	.	(16.g\LL	.	(16.b\LL	.	8ddd\	.
16D\	.	.	.	.	.	.	.
.	.	32a\JJk	.	32cc#\JJk	.	.	.
16D\	.	32b\LLL	.	32dd\LLL	.	8r	.
.	.	32a\	.	32cc#\	.	.	.
16D\JJ	.	32b\	.	32dd\	.	.	.
.	.	32g\JJJ)	.	32b\JJJ)	.	.	.
=18	=18	=18	=18	=18	=18	=18	=18
16D\LL	.	8f#\	.	8a/	.	32r	.
.	.	.	.	.	.	(32a'\LLL	.
16D\	.	.	.	.	.	32b'\	.
.	.	.	.	.	.	32cc#'\JJJ	.
16D\	.	8r	.	8r	.	32dd'\LLL	.
.	.	.	.	.	.	32ee'\	.
16D\JJ	.	.	.	.	.	32ff#'\	.
.	.	.	.	.	.	32gg'\JJJ)	.
16d\LL	.	16f#\LL	.	4r	.	8aa\L	.
16d\	.	16f#\	.	.	.	.	.
16d\	.	16f#\	.	.	.	&(32aa\LL)	.
.	.	.	.	.	.	32gg#\	.
16d\JJ	.	16f#\JJ	.	.	.	32aa\	.
.	.	.	.	.	.	32bb\JJJ&)	.
=19	=19	=19	=19	=19	=19	=19	=19
16c#\LL	.	16e\LL	.	8a/L	.	8aa\	.
16c#\	.	16e\	.	.	.	.	.
16c#\	.	16e\	.	&(32a/LL)	.	8r	.
.	.	.	.	32g#/	.	.	.
16c#\JJ	.	16e\JJ	.	32a/	.	.	.
.	.	.	.	32b/JJJ&)	.	.	.
16c#\LL	.	16e\LL	.	8a/	.	8aa\L	.
16c#\	.	16e\	.	.	.	.	.
16c#\	.	16e\	.	8r	.	&(32aa\LL)	.
.	.	.	.	.	.	32gg#\	.
16c#\JJ	.	16e\JJ	.	.	.	32aa\	.
.	.	.	.	.	.	32bb\JJJ&)	.
=20	=20	=20	=20	=20	=20	=20	=20
16B\LK	.	16d\LK	.	16dd\LK	.	16gg#\LK	.
8G#\	f	8e\	f	8bb\	f	8ddd\	f
8A\	f	8e\	f	8aa\	f	8ccc#\	f
8d\	f	8f#\	f	8ff#\	f	8bb\	f
[16e\Jk	f	[16gn\Jk	f	[16cc#\Jk	f	[16aa#\Jk	f
=21	=21	=21	=21	=21	=21	=21	=21
16e\LK]	.	16g\LK]	.	16cc#\LK]	.	16aa#\LK]	.
8d\	f	8f#\	f	8dd\	f	8bb\	f
16e\Jk	.	16g\Jk	.	16cc#\Jk	.	16aa#\Jk	.
(16d\LL	>	(16f#\LL	>	(16dd\LL	>	(16bb\LL	>
16e\	.	16g\	.	16cc#\	.	16aa#\	.
16d\	.	16f#\)	.	16dd\	.	16bb\	.
16d#\JJ)	]	16f#\JJ	]	16ff#\JJ)	]	16aan\JJ)	]
=22	=22	=22	=22	=22	=22	=22	=22
8.e\L	p	8e\	.	8b\L	.	16gg#\LL	p
.	.	.	.	.	.	(16ee'\	.
.	.	8r	.	16r	.	16ee'\	.
16e\Jk	.	.	.	(16ee'\Jk	.	16ee'\JJ	.
(16fn\LL	.	4r	.	16ddn'\LL	.	16ee'\LL	.
16f#\	.	.	.	16dd'\	.	16ee'\	.
16gn\	.	.	.	16dd'\	.	16ee'\	.
16g#\JJ)	.	.	.	16dd'\JJ)	.	16ee'\JJ)	.
=23	=23	=23	=23	=23	=23	=23	=23
4a\	.	(16c#/LL	p	8cc#\L	.	4ee\	.
.	.	16A/)	.	.	.	.	.
.	.	(16c#/	.	(16a\L	.	.	.
.	.	16A/JJ)	.	16cc#\JJ)	.	.	.
4r	.	(16d/LL	.	(16a\LL	.	(8.ff#\L	.
.	.	16A/)	.	16dd\)	.	.	.
.	.	(16d/	.	(16a\	.	.	.
.	.	16A/JJ)	.	16dd\JJ)	.	32gg#\LL	.
.	.	.	.	.	.	32aa\JJJ)	.
=24	=24	=24	=24	=24	=24	=24	=24
8r	.	(16c#/LL	.	(16a\LL	.	(16aa\LL	.
.	.	16A/)	.	16cc#\)	.	16ee\J)	.
(48AA\LLL	.	(16c#/	.	(16a\	.	[8ee\J	.
48C#\	.	.	.	.	.	.	.
48E\	.	.	.	.	.	.	.
48A\	.	16A/JJ)	.	16cc#\JJ)	.	.	.
48c#\	.	.	.	.	.	.	.
48e\JJJ)	.	.	.	.	.	.	.
8a\	.	(16c#/LL	.	(16a\LL	.	16ee\LL]	.
.	.	16A/)	.	16cc#\)	.	16ee#\JJ	.
8r	.	(16d/	.	(16a\	.	(32ff#\LLL	.
.	.	.	.	.	.	32gg#\)	.
.	.	16A/JJ)	.	16dd\JJ)	.	(32gg#\	.
.	.	.	.	.	.	32aa\JJJ)	.
=25	=25	=25	=25	=25	=25	=25	=25
8r	.	(16c#/LL	.	(16a\LL	.	(16aa\LL	.
.	.	16A/)	.	16cc#\)	.	16een\J)	.
(48AA\LLL	.	(16c#/	.	(16a\	.	[8ee\J	.
48C#\	.	.	.	.	.	.	.
48E\	.	.	.	.	.	.	.
48A\	.	16A/JJ)	.	16cc#\JJ)	.	.	.
48c#\	.	.	.	.	.	.	.
48e\JJJ)	.	.	.	.	.	.	.
8a\	.	(16c#/LL	.	(16a\LL	.	16ee\LL]	.
.	.	16A/)	.	16cc#\)	.	16ee#\JJ	.
8r	.	(16d/	.	(16a\	.	(32ff#\LLL	.
.	.	.	.	.	.	32gg#\)	.
.	.	16A/JJ)	.	16dd\JJ)	.	(32gg#\	.
.	.	.	.	.	.	32aa\JJJ)	.
=26	=26	=26	=26	=26	=26	=26	=26
!	!	! cre	!	! cre	!	! cre	!
*clefC4	*	*	*	*	*	*	*
! cre	!	!	!	!	!	!	!
16a\LL	.	16a\LL	.	16cc#\LL	.	(4aa\	.
16a\	.	16cc#\	.	16ee\	.	.	.
16a\	.	16cc#\	.	16ee\	.	.	.
16a\JJ	.	16cc#\JJ	.	16ee\JJ	.	.	.
16gn\LL	.	16cc#\LL	.	16ee\LL	.	4bb-\)	.
16g\	.	16cc#\	.	16ee\	.	.	.
16g\	.	16ee\	.	16cc#\	.	.	.
16g\JJ	.	16ee\JJ	.	16cc#\JJ	.	.	.
=27	=27	=27	=27	=27	=27	=27	=27
! scen	!	! scen	!	! scen	!	! scen	!
16f#\LL	.	16a\LL	.	16dd\LL	.	(4aa\	.
16f#\	.	16a\	.	16dd\	.	.	.
16f#\	.	16a\	.	16dd\	.	.	.
16f#\JJ	.	16a\JJ	.	16dd\JJ	.	.	.
!	!	!	!	!	!	! do	!
16fn\LL	.	16a\LL	.	16dd#\LL	.	4cccn\)	.
16f\	.	16a\	.	16dd#\	.	.	.
! do	!	! do	!	! do	!	!	!
16f\	.	16a\	.	16dd#\	.	.	.
16f\JJ	.	16a\JJ	.	16dd#\JJ	.	.	.
=28	=28	=28	=28	=28	=28	=28	=28
4e\	f	4a\	f	4ee\	f	8ccc#\	f
.	.	.	.	.	.	16.r	.
.	.	.	.	.	.	32ccc#\	mf
4r	.	4r	.	4r	.	(32eee\LLL	.
.	.	.	.	.	.	32ccc#\	.
.	.	.	.	.	.	32bb\	.
.	.	.	.	.	.	32ddd\JJJ)	.
.	.	.	.	.	.	(32ccc#\LLL	.
.	.	.	.	.	.	32aa\	.
.	.	.	.	.	.	32ccc#\	.
.	.	.	.	.	.	32bb\JJJ)	.
=29	=29	=29	=29	=29	=29	=29	=29
2r	.	2r	.	2r	.	(32gg#\LLL	.
.	.	.	.	.	.	32bb\	.
.	.	.	.	.	.	32aa\	.
.	.	.	.	.	.	32ff#\JJJ)	.
!	!	!	!	!	!	! cresc.	!
.	.	.	.	.	.	(32aa\LLL	.
.	.	.	.	.	.	32gg#\	.
.	.	.	.	.	.	32ee\	.
.	.	.	.	.	.	32gg#\JJJ)	.
.	.	.	.	.	.	(32ff#\LLL	.
.	.	.	.	.	.	32dd\	.
.	.	.	.	.	.	32ff#\	.
.	.	.	.	.	.	32ee\JJJ)	.
.	.	.	.	.	.	(32cc#\LLL	.
.	.	.	.	.	.	32ee\	.
.	.	.	.	.	.	32dd\	.
.	.	.	.	.	.	32b\JJJ)	.
*clefF4	*	*	*	*	*	*	*
=30	=30	=30	=30	=30	=30	=30	=30
(32d\LLL	.	(32dd\LLL	.	(32dd\LLL	f	(32dd\LLL	f
32c#\	.	32cc#\	.	32cc#\	.	32cc#\	.
32A\	.	32a\	.	32a\	.	32a\	.
32c#\JJJ)	.	32cc#\JJJ)	.	32cc#\JJJ)	.	32cc#\JJJ)	.
(32B\LLL	.	(32b\LLL	.	(32b/LLL	.	(32b/LLL	.
32G#\	.	32g#\	.	32g#/	.	32g#/	.
32B\	.	32b\	.	32b/	.	32b/	.
32A\JJJ)	.	32a\JJJ)	.	32a/JJJ)	.	32a/JJJ)	.
(32F#\LLL	.	(32f#\LLL	.	(32f#/LLL	.	(32f#/LLL	.
32A\	.	32a\	.	32a/	.	32a/	.
32G#\	.	32g#\	.	32g#/	.	32g#/	.
32E\JJJ)	.	32e\JJJ)	.	32e/JJJ)	.	32e/JJJ)	.
(32G#\LLL	.	(32g#\LLL	.	(32g#/LLL	.	(32g#/LLL	.
32F#\	.	32f#\	.	32f#/	.	32f#/	.
32D\	.	32d\	.	32d/	.	32d/	.
32F#\JJJ)	.	32f#\JJJ)	.	32f#/JJJ)	.	32f#/JJJ)	.
=31	=31	=31	=31	=31	=31	=31	=31
(32E\LLL	.	(32e\LLL	.	(32e/LLL	.	(32e/LLL	.
32C#\)	.	32c#\)	.	32c#/)	.	32c#/)	.
(32A\	.	(32a\	.	(32a/	.	(32a/	.
32C#\JJJ)	.	32c#\JJJ)	.	32c#/JJJ)	.	32c#/JJJ)	.
(32A\LLL	.	(32a\LLL	.	(32a/LLL	.	(32a/LLL	.
32D\)	.	32d\)	.	32d/)	.	32d/)	.
(32A\	.	(32a\	.	(32a/	.	(32a/	.
32D#\JJJ)	.	32d#\JJJ)	.	32d#/JJJ)	.	32d#/JJJ)	.
(32A\LLL	.	(32a\LLL	.	(32a/LLL	.	(32a/LLL	.
32E\)	.	32e\)	.	32e/)	.	32e/)	.
(32A\	.	(32a\	.	(32a/	.	(32a/	.
32Fn\JJJ)	.	32fn\JJJ)	.	32fn/JJJ)	.	32fn/JJJ)	.
(32A\LLL	.	(32a\LLL	.	(32a/LLL	.	(32a/LLL	.
32E\)	.	32e\)	.	32e/)	.	32e/)	.
(32A\	.	(32a\	.	(32a/	.	(32a/	.
32D#\JJJ)	.	32d#\JJJ)	.	32d#/JJJ)	.	32d#/JJJ)	.
=32	=32	=32	=32	=32	=32	=32	=32
(32E\LLL	.	(32e\LLL	.	(32e\LLL	.	(32e\LLL	.
32A\	.	32a\	.	32a\	.	32a\	.
32c#\	.	32cc#\	.	32cc#\	.	32cc#\	.
32e\JJJ)	.	32ee\JJJ)	.	32ee\JJJ)	.	32ee\JJJ	.
8r	.	8r	.	8r	.	32aa\LLL	.
.	.	.	.	.	.	32ccc#\)	.
.	.	.	.	.	.	32eee'\	.
.	.	.	.	.	.	32eee'\JJJ	.
4r	.	4r	.	4r	.	32eee'\LLL	.
.	.	.	.	.	.	32eee'\	.
.	.	.	.	.	.	32eee'\	.
.	.	.	.	.	.	32eee'\JJJ	.
.	.	.	.	.	.	(32eee\LLL	.
.	.	.	.	.	.	32ddd#\	.
.	.	.	.	.	.	32dddn\	.
.	.	.	.	.	.	32ccc#\JJJ)	.
=33	=33	=33	=33	=33	=33	=33	=33
8E\	.	8G#/	.	8d/	.	(2bbT\	f>]
8r	.	8r	.	8r	.	.	.
(4e\	.	(4g#\	.	(4dd\	.	.	.
!	!	!	!	!	!	! 16aaP/LL	!
!	!	!	!	!	!	! 16bbP/JJ)	!
=34	=34	=34	=34	=34	=34	=34	=34
4A\)	p	8a\)	p	16cc#\LL)	p	[2aap\	p<]
.	.	.	.	16a\JJ	.	.	.
.	.	8r	.	&(32b\LLL)	.	.	.
.	.	.	.	32a\	.	.	.
.	.	.	.	32b\	.	.	.
.	.	.	.	32dd\JJJ&)	.	.	.
4r	.	16A/LL	p<	16cc#\LL	<	.	.
.	.	16A/JJ	.	16cc#\JJ	.	.	.
.	.	&(32B/LLL)	.	&(32dd\LLL)	.	.	.
.	.	32A/	.	32cc#\	.	.	.
.	.	32B/	.	32dd\	.	.	.
.	.	32d/JJJ&)	.	32ff#\JJJ&)	.	.	.
=35	=35	=35	=35	=35	=35	=35	=35
4r	.	16c#\LL	.	16ee\LL	.	2aa\_	>
.	.	16c#\JJ	.	16ee\JJ	.	.	.
.	.	&(32d\LLL)	.	&(32ff#\LLL)	.	.	.
.	.	32c#\	.	32ee\	.	.	.
.	.	32d\	.	32ff#\	.	.	.
.	.	32f#\JJJ&)	]	32aa\JJJ&)	]	.	.
32r	.	4e\	>	4gg\	>	.	.
32CC#'/LLL	>	.	.	.	.	.	.
32EE'/	.	.	.	.	.	.	.
32AA'/JJJ	.	.	.	.	.	.	.
32C#'\LLL	.	.	.	.	.	.	.
32E'\	.	.	.	.	.	.	.
32A'\	.	.	.	.	.	.	.
32c#'\JJJ	]	.	.	.	.	.	.
!	!	!	!	!	!	! 32aaP/LLL]	!
!	!	!	!	!	!	! 32bbP/	!
!	!	!	!	!	!	! 32aaP/	!
!	!	!	!	!	!	! 32bbP/	!
!	!	!	!	!	!	! 32aaP/	!
!	!	!	!	!	!	! 32bbP/	!
!	!	!	!	!	!	! 32aaP/	!
!	!	!	!	!	!	! 32bbP/JJJ	!
=36	=36	=36	=36	=36	=36	=36	=36
!	!	!	!	!	!	! dim.	!
4d\	p	(16F#/LL	]p	(16d/LL	]p	4aap\]	]
.	.	16D/)	.	16f#/	.	.	.
.	.	(16F#/	.	16d/	.	.	.
.	.	16D/JJ)	.	16f#/JJ)	.	.	.
4r	.	(16G/LL	.	(16d/LL	.	(8.bb\L	.
.	.	16D/)	.	16g/	.	.	.
.	.	(16G/	.	16d/	.	.	.
.	.	16D/JJ)	.	16g/JJ)	.	32ccc#\LL	.
.	.	.	.	.	.	32ddd\JJJ)	.
=37	=37	=37	=37	=37	=37	=37	=37
4DD/	.	(16F#/LL	.	(16d/LL	.	(16ddd\LL	.
.	.	16D/)	.	16f#/	.	16aa\J)	.
.	.	(16F#/	.	16d/	.	[8aa\J	.
.	.	16D/JJ)	.	16f#/JJ)	.	.	.
4r	.	(16F#/LL	.	(16d/LL	.	16aa\LL]	.
.	.	16D/)	.	16f#/	.	(32bb\L	.
.	.	.	.	.	.	32aa\JJJ	.
.	.	(16F#/	.	16d/	.	32gg\LLL	.
.	.	.	.	.	.	32ff#\	.
.	.	16f#/JJ)	.	16f#/JJ)	.	32ee\	.
.	.	.	.	.	.	32dd\JJJ)	.
=38	=38	=38	=38	=38	=38	=38	=38
4AA/	.	(16g\LL	.	(16A/LL	.	(16.cc#\LL	.
.	.	16A\)	.	16g/	.	.	.
.	.	.	.	.	.	32a\k)	.
.	.	(16f#\	.	16A/	.	(16.dd\	.
.	.	16A\JJ)	.	16f#/JJ)	.	.	.
.	.	.	.	.	.	32a\JJk)	.
4r	.	(16c#/LL	.	16e\LL	.	8gg\L	.
.	.	16A/)	.	16cc#\JJ	.	.	.
.	.	(16d/	.	&(32dd\LLL)	.	&(32ff#\LL)	.
.	.	.	.	32cc#\	.	32ee\	.
.	.	16A/JJ)	.	32dd\	.	32ff#\	.
.	.	.	.	32ee\JJJ&)	.	32gg\JJJ&)	.
=39	=39	=39	=39	=39	=39	=39	=39
4AA/	.	(16a\LL	.	(4dd\	.	(4ff#\	.
.	.	16A\JJ)	.	.	.	.	.
.	.	(32a\LLL	.	.	.	.	.
.	.	32g#\	.	.	.	.	.
.	.	32b\	.	.	.	.	.
.	.	32g#\JJJ)	.	.	.	.	.
4r	.	8a\	.	8cc#\)	.	16ee\LL)	.
.	.	.	.	.	.	(16ff#\	.
.	.	8r	.	8r	.	16gg\	.
.	.	.	.	.	.	16gg#\JJ)	.
=40	=40	=40	=40	=40	=40	=40	=40
32DD'/LLL	.	8d\	.	8f#/ 8A/	.	4aa\	.
32FF#'/	.	.	.	.	.	.	.
32AA'/	.	.	.	.	.	.	.
32D'/JJJ	.	.	.	.	.	.	.
32F#'\LLL	.	8r	.	8r	.	.	.
32A'\	.	.	.	.	.	.	.
32d'\	.	.	.	.	.	.	.
32f#'\JJJ	.	.	.	.	.	.	.
(16g\LL	.	4r	.	4r	.	(8.bb\L	.
16d\	.	.	.	.	.	.	.
16g\	.	.	.	.	.	.	.
16d\JJ)	.	.	.	.	.	32ccc#\LL	.
.	.	.	.	.	.	32ddd\JJJ)	.
=41	=41	=41	=41	=41	=41	=41	=41
(16f#\LL	.	2r	.	2r	.	(16ddd\LL	.
16d\	.	.	.	.	.	16aa\J)	.
16f#\	.	.	.	.	.	[8aa\J	.
16d\JJ)	.	.	.	.	.	.	.
8f#\	.	.	.	.	.	16aa\LL]	<
.	.	.	.	.	.	(32bb'\L	.
.	.	.	.	.	.	32ccc#'\JJJ	.
8r	.	.	.	.	.	32ddd'\LLL	.
.	.	.	.	.	.	32eee'\	.
.	.	.	.	.	.	32fff#'\	.
.	.	.	.	.	.	32ggg'\JJJ)	]
=42	=42	=42	=42	=42	=42	=42	=42
4r	.	4r	.	4r	.	8aaa\	.
.	.	.	.	.	.	16.r	.
.	.	.	.	.	.	32fff#\	.
8A\L	.	(8d\L	.	8f#/L	.	8ddd\L	.
8AA\J	.	8c#\J)	.	&(32g/LL)	.	&(32eee\LL)	.
.	.	.	.	32f#/	.	32ddd\	.
.	.	.	.	32g/	.	32eee\	.
.	.	.	.	32a/JJJ&)	.	32fff#\JJJ&)	.
=43	=43	=43	=43	=43	=43	=43	=43
!	!	! cresc.	!	! cresc.	!	! cresc.	!
(16FFn/LL	.	(4A/	.	(16d/LL	.	(4ddd\	.
16DD/)	.	.	.	16fn/)	.	.	.
(16FF/	.	.	.	(16d/	.	.	.
16DD/JJ)	.	.	.	16f/JJ)	.	.	.
(16GG/LL	.	4B-/)	.	(16d/LL	.	4bb-\)	.
16DD/)	.	.	.	16g/)	.	.	.
(16GG/	.	.	.	(16d/	.	.	.
16DD/JJ)	.	.	.	16g/JJ)	.	.	.
=44	=44	=44	=44	=44	=44	=44	=44
(16BB-/LL	f	(16g\LL	f	(16e/LL	f	(4cc#\	f
16DD/)	.	16e\)	.	16g/)	.	.	.
(16BB-/	.	(16g\	.	(16e/	.	.	.
16DD/JJ)	.	16e\JJ)	.	16g/JJ)	.	.	.
(16AA/LL	.	(16d\LL	.	(16fn/LL	.	4dd\)	.
16DD/)	.	16fn\)	.	16a/)	.	.	.
(16FFn/	.	(16a'\	.	(16d/	.	.	.
16D/JJ)	.	16a'\JJ)	.	16f/JJ)	.	.	.
=45	=45	=45	=45	=45	=45	=45	=45
(16C#/LL	.	(4a\	.	(4a/	.	(4ee\	.
16AA/)	.	.	.	.	.	.	.
(16C#/	.	.	.	.	.	.	.
16AA/JJ)	.	.	.	.	.	.	.
(16D/LL	.	8dd\L)	.	4g#/)	.	8ffn\L)	.
16AA/)	.	.	.	.	.	.	.
(16D/	.	&(32dd\LL)	.	.	.	&(32ff\LL)	.
.	.	32cc#\	.	.	.	32ee\	.
16AA/JJ)	.	32dd\	.	.	.	32ff\	.
.	.	32ee\JJJ&)	.	.	.	32gg\JJJ&)	.
=46	=46	=46	=46	=46	=46	=46	=46
(16A\LL	.	8cc#'\L	.	(16a\LL	.	8ee'\L	.
16AA\	.	.	.	16cc#\	.	.	.
16C#\	.	8cc#'\J	.	16ee\	.	8ee'\J	.
16E\JJ)	.	.	.	16cc#\JJ)	.	.	.
! dim.	!	!	!	!	!	!	!
(16A\LL	.	8cc#'\	.	8a/	.	8ee'\	.
16B-\	.	.	.	.	.	.	.
16A\	.	8r	.	8r	.	8r	.
16G\JJ)	.	.	.	.	.	.	.
=47	=47	=47	=47	=47	=47	=47	=47
!	!	!	!	!	!	! dolce	!
4Fn\	p	(16fn\LL	.	4r	.	(4.ffn\	.
.	.	16c#\)	.	.	.	.	.
.	.	(16d\	.	.	.	.	.
.	.	16A\JJ)	.	.	.	.	.
4r	.	(16B-/LL	.	[4gn/	p	.	.
.	.	16G/)	.	.	.	.	.
.	.	(16cn/	.	.	.	16ee\LL	.
.	.	16B-/JJ)	.	.	.	16gg\JJ)	.
=48	=48	=48	=48	=48	=48	=48	=48
(16Fn/LL	.	4A/	.	8g\L]	.	4aa\	.
16Cn/	.	.	.	.	.	.	.
16D/	.	.	.	(16fn\L	.	.	.
16AA/JJ)	.	.	.	16ffn\JJ)	.	.	.
(16BB-/LL	.	4d\	.	(4ff\	.	[4gg\	.
16AA/	.	.	.	.	.	.	.
16BB-/	.	.	.	.	.	.	.
16BBn/JJ)	.	.	.	.	.	.	.
=49	=49	=49	=49	=49	=49	=49	=49
(16Cn/LL	.	(8B-/L	.	&(8ee\L)	.	(8gg\L]	.
16CCn/	.	.	.	.	.	.	.
16C/	.	8A/)	.	8ffn\&)	.	8aa\J)	.
16CC/JJ)	.	.	.	.	.	.	.
(16CC#/LL	.	(8E/	.	&(8gg\)	.	&(8bb-\L)	.
16C#/	.	.	.	.	.	.	.
16DD/	.	8Fn/J)	.	8ff\J&)	.	8aa\J&)	.
16D/JJ)	.	.	.	.	.	.	.
=50	=50	=50	=50	=50	=50	=50	=50
(16BB-\LL	.	4d\	.	(8.dd\L	.	[8gg\L	.
16D\	.	.	.	.	.	.	.
16G\	.	.	.	.	.	(48gg\LL]	.
.	.	.	.	.	.	48aa\	.
.	.	.	.	.	.	48bb-\JJJ	.
16B-\JJ)	.	.	.	16b-\Jk)	.	48ddd\LLL	.
.	.	.	.	.	.	48bb-\	.
.	.	.	.	.	.	48gg\JJJ)	.
(16cn\LL	.	(8cn\L	.	(8a/L	.	(8ffn\L	.
16Cn\	.	.	.	.	.	.	.
16c\	.	8e\J)	.	16.b-/L	.	16.gg\L	.
16C\JJ)	.	.	.	.	.	.	.
.	.	.	.	32a/JJk)	.	32ff\JJk)	.
=51	=51	=51	=51	=51	=51	=51	=51
(16Fn/LL	.	4fn\	.	4a/	.	4ffn\	.
16Cn/	.	.	.	.	.	.	.
16AA/	.	.	.	.	.	.	.
16FFn/JJ)	.	.	.	.	.	.	.
4r	.	16r	.	[4ffn\	.	(4aa\	.
.	.	(16E/LL	.	.	.	.	.
.	.	16Fn/	.	.	.	.	.
.	.	16A/JJ)	.	.	.	.	.
=52	=52	=52	=52	=52	=52	=52	=52
2r	.	(16B-/LL	.	8ff\]	.	4gg\)	.
.	.	16Bn/	.	.	.	.	.
.	.	16cn/	.	4ee\	.	.	.
.	.	16c#/JJ)	.	.	.	.	.
.	.	(16d\LL	.	.	.	8ffn\L	.
.	.	16fn\	.	.	.	.	.
.	.	16g\	.	&(32dd\LLL)	.	&(32ff\LL)	.
.	.	.	.	32cc#\	.	32ee\	.
.	.	16g#\JJ)	.	32dd\	.	32ff\	.
.	.	.	.	32ee\JJJ&)	.	32gg\JJJ&)	.
=53	=53	=53	=53	=53	=53	=53	=53
2r	.	(16a\LL	.	(4dd\	.	(4ffn\	.
.	.	16b-\	.	.	.	.	.
.	.	16a\	.	.	.	.	.
.	.	16g#\JJ)	.	.	.	.	.
.	.	(16a\LL	.	16cc#\LL)	.	16ee\LL)	.
.	.	16gn\	.	(16cc#\	.	(16ee\	.
.	.	16f#\	.	16dd\	.	16ff#\	.
.	.	16e\JJ)	.	16ee\JJ)	.	16gg\JJ)	.
=54	=54	=54	=54	=54	=54	=54	=54
(16FF#/LL	.	4d\	.	(16dd/LL	.	4aa\	.
16DD/	.	.	.	16f#/	.	.	.
16FF#/	.	.	.	16d/	.	.	.
16DD/JJ)	.	.	.	16f#/JJ)	.	.	.
(16GG/LL	.	4r	.	(16d/LL	.	(8.bb\L	.
16DD/	.	.	.	16g/	.	.	.
16GG/	.	.	.	16d/	.	.	.
16DD/JJ)	.	.	.	16g/JJ)	.	32ccc#\LL	.
.	.	.	.	.	.	32ddd\JJJ)	.
=55	=55	=55	=55	=55	=55	=55	=55
(16FF#/LL	.	8r	.	(16d/LL	.	(16ddd\LL	.
16DD/	.	.	.	16f#/	.	16aa\J)	.
16FF#/	.	(48D/LLL	.	16d/	.	([8aa\J	.
.	.	48F#/	.	.	.	.	.
.	.	48A/	.	.	.	.	.
16DD/JJ)	.	48d/	.	16f#/JJ)	.	.	.
.	.	48f#/	.	.	.	.	.
.	.	48a/JJJ)	.	.	.	.	.
(16FF#/LL	.	8dd\	.	(16d/LL	.	16aa\LL]	.
16DD/	.	.	.	16f#/	.	(32bb\L	.
.	.	.	.	.	.	32aa\JJJ	.
16D/	.	8r	.	16d/	.	32gg\LLL	.
.	.	.	.	.	.	32ff#\	.
16F#/JJ)	.	.	.	16f#/JJ)	.	32ee\	.
.	.	.	.	.	.	32dd\JJJ)	.
=56	=56	=56	=56	=56	=56	=56	=56
(16G/LL	.	2r	.	(16A/LL	.	(16.cc#\LL	.
16AA/	.	.	.	16g/	.	.	.
.	.	.	.	.	.	32a\k)	.
16F#/	.	.	.	16A/	.	(16.dd\	.
16AA/JJ)	.	.	.	16f#/JJ)	.	.	.
.	.	.	.	.	.	32a\JJk)	.
(16C#/LL	.	.	.	8e/L	.	8gg\L	.
16AA/	.	.	.	.	.	.	.
16D/	.	.	.	&(32d/LL)	.	&(32ff#\LL)	.
.	.	.	.	32c#/	.	32ee\	.
16GG#/JJ)	.	.	.	32d/	.	32ff#\	.
.	.	.	.	32e/JJJ&)	.	32gg\JJJ&)	.
=57	=57	=57	=57	=57	=57	=57	=57
(16AA\LL	.	2r	.	(4d/	.	(4ff#\	.
16G#\JJ	.	.	.	.	.	.	.
32A\LLL	.	.	.	.	.	.	.
32G#\	.	.	.	.	.	.	.
32B\	.	.	.	.	.	.	.
32G#\JJJ)	.	.	.	.	.	.	.
8A\	.	.	.	8c#/)	.	16ee\LL)	.
.	.	.	.	.	.	(16ff#\	.
8r	.	.	.	8r	.	16gg\	.
.	.	.	.	.	.	16gg#\JJ)	.
=58	=58	=58	=58	=58	=58	=58	=58
2r	.	(16f#\LL	.	(16d/LL	.	4aa\	.
.	.	16d\)	.	16f#/	.	.	.
.	.	(16f#\	.	16d/	.	.	.
.	.	16d\JJ)	.	16f#/JJ)	.	.	.
.	.	(16g\LL	.	(16d/LL	.	(8.bb\L	.
.	.	16d\)	.	16g/	.	.	.
.	.	(16g\	.	16d/	.	.	.
.	.	16d\JJ)	.	16g/JJ)	.	32ccc#\LL	.
.	.	.	.	.	.	32ddd\JJJ)	.
=59	=59	=59	=59	=59	=59	=59	=59
(32DD/LLL	.	(16f#\LL	.	(16d/LL	.	(16ddd\LL	.
32CC#/	.	.	.	.	.	.	.
32DD/	.	16d\)	.	16f#/	.	16aa\J)	.
32CC#/JJJ	.	.	.	.	.	.	.
32DD/LLL	.	(16f#\	.	16d/	.	[8aa\J	.
32CC#/	.	.	.	.	.	.	.
32DD/	.	16d\JJ)	.	16f#/JJ)	.	.	.
32CC#/JJJ	.	.	.	.	.	.	.
8DD/)	.	8f#\	.	8d/	.	16aa\LL]	.
.	.	.	.	.	.	(32bb'\L	.
.	.	.	.	.	.	32ccc#'\JJJ	.
8r	.	8r	.	8r	.	32ddd'\LLL	.
.	.	.	.	.	.	32eee'\	.
.	.	.	.	.	.	32fff#'\	.
.	.	.	.	.	.	32ggg'\JJJ)	.
=60	=60	=60	=60	=60	=60	=60	=60
4r	.	32r	.	32r	.	8aaa\	.
.	.	(32d'\LLL	.	(32f#'\LLL	.	.	.
.	.	32e'\	.	32g'\	.	.	.
.	.	32f#'\JJJ	.	32a'\JJJ	.	.	.
.	.	32g'\LLL	.	32b'\LLL	.	8r	.
.	.	32a'\	.	32cc#'\	.	.	.
.	.	32b'\	.	32dd'\	.	.	.
.	.	32cc#'\JJJ	.	32ee'\JJJ	.	.	.
32r	.	16dd'\LL)	.	16ff#'\LL)	.	16r	.
(32D/LLL	<	.	.	.	.	.	.
32C#/	.	(16dd'\	<	(16ff#'\	<	(16ddd'\LL	<
32Cn/JJJ	.	.	.	.	.	.	.
32BB/LLL	.	16dd'\	.	16ff#'\	.	16ddd'\	.
32BB-/	.	.	.	.	.	.	.
32AA/	.	16dd'\JJ)	]	16ff#'\JJ)	]	16ddd'\JJ)	]
32GG#/JJJ)	]	.	.	.	.	.	.
=61	=61	=61	=61	=61	=61	=61	=61
4AA/	f	8dd\	f	4ff#\	f	4ddd\	f
.	.	8r	.	.	.	.	.
4r	.	4r	.	4r	.	(32ddd\LLL	mf
.	.	.	.	.	.	32ccc#\	.
.	.	.	.	.	.	32aa\	.
.	.	.	.	.	.	32ccc#\JJJ)	.
.	.	.	.	.	.	(32bb\LLL	.
.	.	.	.	.	.	32gg\	.
.	.	.	.	.	.	32bb\	.
.	.	.	.	.	.	32aa\JJJ)	.
=62	=62	=62	=62	=62	=62	=62	=62
2r	.	2r	.	(32d/LLL	.	(32ff#\LLL	.
.	.	.	.	32d#/	.	32aa\	.
.	.	.	.	32e/	.	32gg\	.
.	.	.	.	32g/JJJ)	.	32ee\JJJ)	.
.	.	.	.	(32c#/LLL	.	(32gg\LLL	.
.	.	.	.	32dn/	.	32ff#\	.
.	.	.	.	32f#/	.	32dd\	.
.	.	.	.	32B/JJJ)	.	32ff#\JJJ)	.
.	.	.	.	(32c#/LLL	.	(32ee\LLL	.
.	.	.	.	32e/	.	32cc#\	.
.	.	.	.	32A#/	.	32ee\	.
.	.	.	.	32B/JJJ)	.	32dd\JJJ)	.
.	.	.	.	(32d/LLL	.	(32b\LLL	.
.	.	.	.	32G#/	.	32dd\	.
.	.	.	.	32An/	.	32cc#\	.
.	.	.	.	32c#/JJJ)	.	32a\JJJ)	.
=63	=63	=63	=63	=63	=63	=63	=63
2r	.	(32d/LLL	mf	(32f#/LLL	.	(32b\LLL	.
.	.	32c#/	.	32e/	.	32a\	.
.	.	32B/	.	32g#/	.	32dd\	.
.	.	32A/JJJ)	.	32a/JJJ)	.	32cc#\JJJ)	.
.	.	(32d/LLL	.	(32f#/LLL	.	(32b\LLL	.
.	.	32c#/	.	32e/	.	32a\	.
.	.	32B/	.	32g#/	.	32dd\	.
.	.	32A/JJJ)	.	32a/JJJ)	.	32cc#\JJJ)	.
.	.	(32d\LLL	.	(32g#\LLL	.	(32ff#\LLL	.
.	.	32c#\	.	32a\	.	32ee\	.
.	.	32e\	.	32cc#\	.	32gg\	.
.	.	32d\JJJ)	.	32dd\JJJ)	.	32ff#\JJJ)	.
.	.	(32g\LLL	.	(32b\LLL	.	(32ee\LLL	.
.	.	32f#\	.	32a\	.	32dd\	.
.	.	32e\	.	32cc#\	.	32gg\	.
.	.	32d\JJJ)	.	32dd\JJJ)	.	32ff#\JJJ)	.
=64	=64	=64	=64	=64	=64	=64	=64
8r	.	(32g\LLL	.	(32b\LLL	.	(32ee\LLL	.
.	.	32f#\	.	32a\	.	32dd\	.
.	.	32e\	.	32cc#\	.	32gg\	.
.	.	32d\JJJ)	.	32dd\JJJ)	.	32ff#\JJJ)	.
(32G\LLL	mf	(32g\LLL	.	(32d/LLL	.	(32bb\LLL	.
32G#\	.	32fn\	.	32b/	.	32dd\	.
32A\	.	32e\	.	32a/	.	32cc#\	.
32G#\JJJ	.	32f\JJJ	.	32b/JJJ	.	32dd\JJJ	.
32A'\LLL)	.	32e'\LLL)	.	32a'/LLL)	.	32cc#'\LLL)	.
(32F#\	.	(32e-\	.	(32a/	.	(32ccn\	.
32Gn\	.	32d\	.	32g/	.	32b\	.
32F#\JJJ	.	32e-\JJJ	.	32a/JJJ	.	32cc\JJJ	.
!	!	! cre	!	! cre	!	! cre	!
32G'\LLL)	.	32d'\LLL)	.	32g'/LLL)	.	32b'/LLL)	.
(32E\	.	(32c#\	.	(32g/	.	(32b-/	.
32F#\	.	32d\	.	32f#/	.	32a/	.
32E\JJJ	.	32c#\JJJ	.	32g/JJJ	.	32b-/JJJ	.
=65	=65	=65	=65	=65	=65	=65	=65
!	!	! scen	!	! scen	!	! scen	!
32F#'/LLL)	.	32d'/LLL)	.	32f#'/LLL)	.	32a'/LLL)	.
(32GG/	.	(32B/	.	(32e/	.	(32g/	.
32AA/	.	32A/	.	32d/	.	32f#/	.
32AA#/JJJ	.	32G/JJJ)	.	32e/JJJ	.	32g/JJJ	.
32BB'/LLL)	.	32F#'/LLL	.	32d'/LLL)	.	32f#'/LLL)	.
32D'/	.	32d'/	.	32d'/	.	32d'/	.
32C#'/	.	32c#'/	.	32c#'/	.	32c#'/	.
!	!	! do	!	! do	!	! do	!
32D'/JJJ	.	32d'/JJJ	.	32d'/JJJ	.	32d'/JJJ	.
32BB'/LLL	.	32B'/LLL	.	32B'/LLL	.	32Bn'/LLL	.
32D'/	.	32d'/	.	32d'/	.	32d'/	.
32AAn'/	.	32A'/	.	32A'/	.	32A'/	.
32D'/JJJ	.	32d'/JJJ	.	32d'/JJJ	.	32d'/JJJ	.
32GG#'/LLL	.	32G#'/LLL	.	32G#'/LLL	.	32G#'/LLL	.
32D'/	.	32d'/	.	32d'/	.	32d'/	.
32F#'/	.	32f#'/	.	32f#'/	.	32f#'/	.
32D'/JJJ	.	32d'/JJJ	.	32d'/JJJ	.	32d'/JJJ	.
=66	=66	=66	=66	=66	=66	=66	=66
4AA/	f	32A'/LLL	f	32d'/LLL	f	32f#'/LLL	f
.	.	32E'/	.	32Gn'/	.	32c#'/	.
.	.	32F#'/	.	32A'/	.	32d'/	.
.	.	32G'/JJJ	.	32B'/JJJ	.	32e'/JJJ	.
.	.	32A'/LLL	.	32c#'/LLL	.	32f#'/LLL	.
.	.	32B'/	.	32d'/	.	32g'/	.
.	.	32c#'/	.	32e'/	.	32a'/	.
.	.	32d'/JJJ	.	32f#'/JJJ	.	32b'/JJJ	.
4r	.	32e'\LLL	.	32g'/LLL	.	32cc#'\LLL	.
.	.	32f#'\	.	32a'/	.	32dd'\	.
.	.	32g'\	.	32b'/	.	32ee'\	.
.	.	32a'\JJJ	.	32cc#'/JJJ	.	32ff#'\JJJ	.
.	.	32b'\LLL	.	32dd'\LLL	.	32gg'\LLL	.
.	.	32cc#'\	.	32ee'\	.	32aa'\	.
.	.	32dd'\	.	32ff#'\	.	32bb'\	.
.	.	32ee'\JJJ	.	32gg'\JJJ	.	32ccc#'\JJJ	.
=67	=67	=67	=67	=67	=67	=67	=67
4r	.	8ff#'\	.	8aa\	.	8ddd'\	.
.	.	8r	.	8r	.	8r	.
4AA;/	.	(4g;T\	.	&(4cc#;t\)	.	&(4ee;T\)	.
!	!	! 16f#P/LL	!	! 16bP/LL	!	! 16ddP/LL	!
!	!	! 16gP/JJ)	!	! 16cc#P/JJ&)	!	! 16eeP/JJ&)	!
=68	=68	=68	=68	=68	=68	=68	=68
4DD/	.	(16f#p/LL	p	(16ddp/LL	.	8ddp\	.
.	.	16D/	.	16f#/	.	.	.
.	.	16F#/	.	16d/	.	8r	.
.	.	16D/JJ)	.	16f#/JJ)	.	.	.
!	!	!	!	!	!	! dolce	!
4r	.	(16G/LL	.	(16d/LL	.	(8.bb\L	.
.	.	16D/	.	16g/	.	.	.
.	.	16G/	.	16d/	.	.	.
.	.	16D/JJ)	.	16g/JJ)	.	32ccc#\LL	.
.	.	.	.	.	.	32ddd\JJJ)	.
=69	=69	=69	=69	=69	=69	=69	=69
! dolce	!	!	!	!	!	!	!
(64DD/LLLL	.	(16F#/LL	.	(16d/LL	.	(16ddd\LL	.
64CC#/	.	.	.	.	.	.	.
64DD/	.	.	.	.	.	.	.
64CC#/JJJJ	.	.	.	.	.	.	.
64DD/LLLL	.	16D/	.	16f#/	.	16aa\J)	.
64CC#/	.	.	.	.	.	.	.
64DD/	.	.	.	.	.	.	.
64CC#/JJJJ	.	.	.	.	.	.	.
16DD/LL)	.	16F#/	.	16d/	.	8aa\J	.
16DD/JJ	.	16D/JJ)	.	16f#/JJ)	.	.	.
16DD/LL	.	(4c#\	.	(4e/	.	&(32gg\LLL)	.
.	.	.	.	.	.	32ff#\	.
16DD/	.	.	.	.	.	32gg\	.
.	.	.	.	.	.	32bb\JJJ&)	.
16DD/	.	.	.	.	.	(32aa\LLL	.
.	.	.	.	.	.	32gg\	.
16DD/JJ	.	.	.	.	.	32ff#\	.
.	.	.	.	.	.	32gg\JJJ)	.
=70	=70	=70	=70	=70	=70	=70	=70
8DD/	.	16d/LL)	.	&(16d/LL)	.	8ff#\	.
.	.	(16D/	.	16f#/	.	.	.
8r	.	16F#/	.	16d/	.	8r	.
.	.	16D/JJ)	.	16f#/JJ&)	.	.	.
4r	.	(16G/LL	.	(16d/LL	.	(8.b\L	.
.	.	16D/	.	16g/	.	.	.
.	.	16G/	.	16d/	.	.	.
.	.	16D/JJ)	.	16g/JJ)	.	32cc#\LL	.
.	.	.	.	.	.	32dd\JJJ)	.
=71	=71	=71	=71	=71	=71	=71	=71
(64DD/LLLL	.	(16F#/LL	.	(16d/LL	.	(16.dd\LL	.
64CC#/	.	.	.	.	.	.	.
64DD/	.	.	.	.	.	.	.
64CC#/JJJJ	.	.	.	.	.	.	.
64DD/LLLL	.	16D/	.	16f#/	.	.	.
64CC#/	.	.	.	.	.	.	.
64DD/	.	.	.	.	.	32a\k)	.
64CC#/JJJJ	.	.	.	.	.	.	.
16DD/LL)	.	16F#/	.	16d/	.	(16.a\	.
16DD/JJ	.	16D/JJ)	.	16f#/JJ)	.	.	.
.	.	.	.	.	.	32dd\JJk)	.
16DD/LL	.	(4e\	.	(4g/	.	(32cc#\LLL	.
.	.	.	.	.	.	32dd\)	.
16DD/	.	.	.	.	.	(32ee'\	.
.	.	.	.	.	.	32ff#'\JJJ	.
16DD/	.	.	.	.	.	32gg'\LLL	.
.	.	.	.	.	.	32aa'\	.
16DD/JJ	.	.	.	.	.	32bb'\	.
.	.	.	.	.	.	32ccc#'\JJJ)	.
=72	=72	=72	=72	=72	=72	=72	=72
8DD/	.	8d\)	.	8f#/)	.	8ddd\	.
8r	.	8r	.	8r	.	8r	.
(4AA/	p	(32E/LLL	p	(32c#'/LLL	.	(4gg\	.
.	.	32F#/)	.	32d'/)	.	.	.
.	.	(32G'/	.	(32e'/	.	.	.
.	.	32A'/JJJ	.	32f#'/JJJ	.	.	.
.	.	32B'\LLL	.	32g'/LLL	.	.	.
.	.	32c#'\	.	32a'/	.	.	.
.	.	32d'\	.	32b'/	.	.	.
.	.	32e'\JJJ)	.	32cc#'/JJJ)	.	.	.
=73	=73	=73	=73	=73	=73	=73	=73
8DD/)	.	8f#\	.	8dd\	.	8ff#\)	.
8r	.	8r	.	8r	.	8r	.
(4AA/	pp	(32E/LLL	pp	(8.c#/L	pp	(4g/	pp
.	.	32F#/	.	.	.	.	.
.	.	32G/	.	.	.	.	.
.	.	32G#/JJJ	.	.	.	.	.
.	.	32A/LLL	.	.	.	.	.
.	.	32B-/	.	.	.	.	.
.	.	32Bn/	.	16e/Jk)	.	.	.
.	.	64cn/L	.	.	.	.	.
.	.	64c#/JJJJ)	.	.	.	.	.
=74	=74	=74	=74	=74	=74	=74	=74
8DD'/L)	.	8d'/L	.	8d'/L	.	8f#'/L)	.
8DD'/J	.	8F#'/J	.	8A'/J	.	8d'/J	.
8DD/	.	8F#/	.	8A/	.	8d/	.
8r	.	8r	.	8r	.	8r	.
==|!	==|!	==|!	==|!	==|!	==|!	==|!	==|!
*-	*-	*-	*-	*-	*-	*-	*-
!!!RWG: Appoggiaturas of spine 'Violino I' need manual editing in measures: 34, 36, 68
!!!RWG: Appoggiaturas of spine 'Violino II' need manual editing in measures: 68
!!!RWG: Appoggiaturas of spine 'Viola' need manual editing in measures: 68
!!!RWG: Key is interpreted using the Humdrum key tool.
!!!GTL: 6 Quators ("Tost I + II")
!!!AFT: stage2
!!!END: 1994/09/16
!!!KEY: 2170944275
!!!EMD: Converted from MuseData to Humdrum Dec 16, 2000, by Andreas Kornstaedt using muse2kern.
!!!EMD: Manual editing by Craig Sapp, Nov 2001
